X: 126
T:Morning Fair Hornpipe.The. JC.126
T:Manchester Hp,aka. JC.126
T:Rickett's Hp,aka. JC.126
M:C|
L:1/8
Q:150
C:Manchester,Rickett's Hp,aka
S:John Clare,Poet,Helpston. (1793-1864)
R:Hornpipe
O:England
A:Northamptonshire
N:
Z:vmp.P. Headford
K:D
((3ABc)|dcdA FAdf|edcB Acfg|fdfa bged|cdcB Agfe|!
dcdA FAdf|edcB Aceg|fafd egec|d2d2d2:|!
|:(fg)|afaf dfaf|bgbg egbg|afda bged|cdcB Agfe|!
dcdA FAdf|edcB Aceg|fafd egec|d2d2d2:|]
